X: 3072
T: Mrs Muir of Caldwall's    Strathspey
%R: strathspey
B: Niel Gow & Sons "A Third Collection of Strathspey Reels, etc." v.3 p.7 #2
Z: 2022 John Chambers <jc:trillian.mit.edu>
M: C
L: 1/8
K: D	% ending on Bm
% - - - - - - - - - -
V: 1 staves=2
d |\
AFA>B A>B {AB}dF |AFA>B A3B | AFAB A>B {AB}dF | E<ETF>A TB2-B :| g | f>de>c Td>A FD | f<de>c Td3g |
f>de>c Td>A FD | E<EF>A B2-Bg || fdec Td>AFD | f<de<c d3g | f<a e<f Td>A FD | E<ETF>A TB2B |]
% - - - - - - - - - -
% Voice 2 preserves the staff layout in the book.
V: 2 clef=bass middle=d
z | d2d2 d2d2 | d2d2 d2d2 | d2d2 d2d2 | c2d2 B2B :| z | d2a2 f2d2 | d2A2 d2d2 |
d2[a2d2] [f2d2]d2 | [c2e2][d2e2] [B2e2]B2 || d2A2 d2d2 | d2a2 b2c'2 | d'2a2 f2d2 | c2d2 B2B |]
N: The alternate (2nd) notes in bars 7,8 are faint and may have been hand-written.
